assets/icons/folder_icons/folder-out.svg

<?xml version="1.0" encoding="UTF-8"?><svg id="Done" xmlns="http://www.w3.org/2000/svg" xmlns:xlink="http://www.w3.org/1999/xlink" viewBox="0 0 14 14"><defs><style>.cls-1{fill:#c6c6c6;}.cls-1,.cls-2,.cls-3,.cls-4,.cls-5,.cls-6{fill-rule:evenodd;}.cls-2{fill:#8e3d00;}.cls-7{fill:#40a0ff;}.cls-8{fill:url(#linear-gradient);isolation:isolate;opacity:.723;}.cls-3,.cls-9{fill:#fc0;}.cls-4{fill:#c87137;stroke:#000;stroke-linejoin:round;stroke-width:2px;}.cls-5{fill:#fd741a;}.cls-6{fill:#502d16;}</style><linearGradient id="linear-gradient" x1="554.8608" y1="-841.0094" x2="554.8608" y2="-837.0094" gradientTransform="translate(-274.4304 -418.5047) scale(.5 -.5)" gradientUnits="userSpaceOnUse"><stop offset="0" stop-color="#000"/><stop offset="1" stop-color="#000" stop-opacity=".151"/></linearGradient></defs><g id="Layer_19"><g id="g440"><path id="path439" class="cls-7" d="m1,0C.5286,0,0,.5286,0,1v7c0,.4714.5286,1,1,1h10c.4714,0,1-.5286,1-1V2c0-.4714-.5286-1-1-1h-5C6,.5286,5.4714,0,5,0H1Z"/><path id="path440" class="cls-8" d="m1,0C.5286,0,0,.5286,0,1s.5286,1,1,1h4c.4714,0,1-.5286,1-1S5.4714,0,5,0H1Z"/></g><g id="g408"><path id="path402" class="cls-4" d="m7,4s-1,0-1,1v1h-2c-1,0-1,.7891-1,.7891v5.2109s0,1,1,1h8s1,0,1-1v-1s0-3,0-3h0v-1c0-1-1-1-1-1h-2v-1c0-1-1-1-1-1h-2Zm0,1h2v1h-2v-1Z"/><path id="path403" class="cls-5" d="m4,6c-1,0-1,.7892-1,.7892v1.1483s0,3.0625,0,3.0625v1s0,1,1,1h8s1,0,1-1v-4h0v-1c0-1-1-1-1-1H4Z"/><path id="path404" class="cls-2" d="m3.0116,8.0046l1.9954,1.9954,5.9335.0526,2.0479-2.0479s-.9977,3.9907-3.0625,3.9954h-3.9907c-1.9259-.0046-2.9236-3.9954-2.9236-3.9954Z"/><path id="path405" class="cls-6" d="m5,10h6l-1,1h-4l-1-1Z"/><path id="path406" class="cls-3" d="m9,9v2l-1.0156,1-.9844-1v-2h2Z"/><path id="path407" class="cls-1" d="m6,5c0-1,1-1,1-1h2s1,0,1,1v1h-1v-1h-2v1h-1v-1Z"/><rect id="rect407" class="cls-9" x="6" y="6" width="1" height="1"/><rect id="rect408" class="cls-9" x="9" y="6" width="1" height="1"/></g></g></svg>

<svg xmlns="http://www.w3.org/2000/svg" id="Done" viewBox="0 0 14 14"><defs><linearGradient id="linear-gradient" x1="554.861" x2="554.861" y1="-841.009" y2="-837.009" gradientTransform="matrix(.5 0 0 -.5 -274.43 -418.505)" gradientUnits="userSpaceOnUse"><stop offset="0"/><stop offset="1" stop-opacity=".151"/></linearGradient><style>.cls-9{fill:#fc0}</style></defs><g id="Layer_19"><path id="folder" fill="#40a0ff" d="M1 0C.529 0 0 .529 0 1v7c0 .471.529 1 1 1h10c.471 0 1-.529 1-1V2c0-.471-.529-1-1-1H6c0-.471-.529-1-1-1z"/><path id="tab" fill="url(#linear-gradient)" d="M1 0C.529 0 0 .529 0 1s.529 1 1 1h4c.471 0 1-.529 1-1s-.529-1-1-1z" opacity=".723" style="isolation:isolate"/><g id="g408"><path id="path402" fill-rule="evenodd" stroke="#000" stroke-linejoin="round" stroke-width="2" d="M7 4S6 4 6 5v1H4c-1 0-1 .79-1 .79V12s0 1 1 1h8s1 0 1-1V7c0-1-1-1-1-1h-2V5c0-1-1-1-1-1zm0 1h2v1H7z"/><path id="path403" fill="#fd741a" fill-rule="evenodd" d="M4 6c-1 0-1 .79-1 .79V12s0 1 1 1h8s1 0 1-1V7c0-1-1-1-1-1z"/><path id="path404" fill="#8e3d00" fill-rule="evenodd" d="M3.012 8.005 5.007 10l5.934.053 2.047-2.048s-.997 3.99-3.062 3.995h-3.99c-1.927-.005-2.924-3.995-2.924-3.995"/><path id="path405" fill="#502d16" fill-rule="evenodd" d="M5 10h6l-1 1H6z"/><path id="path406" fill="#fc0" fill-rule="evenodd" d="M9 9v2l-1.016 1L7 11V9z"/><path id="path407" fill="#c6c6c6" fill-rule="evenodd" d="M6 5c0-1 1-1 1-1h2s1 0 1 1v1H9V5H7v1H6z"/><path id="rect407" d="M6 6h1v1H6z" class="cls-9"/><path id="rect408" d="M9 6h1v1H9z" class="cls-9"/></g></g></svg>
